svg/ca.svg

<?xml version="1.0" encoding="UTF-8"?>
<svg xmlns="http://www.w3.org/2000/svg" xmlns:xlink="http://www.w3.org/1999/xlink" width="46.544998" height="32" viewBox="0 0 46.544998 32">
<path fill-rule="nonzero" fill="rgb(0%, 0%, 0%)" fill-opacity="1" d="M 36.179688 22.859375 C 35.191406 24.386719 33.597656 25.332031 31.835938 25.332031 C 29.425781 25.332031 27.425781 24.234375 27.425781 21.632812 C 27.425781 17.785156 33.039062 16.429688 37.339844 16.171875 L 37.339844 17.3125 C 37.363281 19.804688 37.320312 21.136719 36.179688 22.859375 M 28.179688 9.03125 C 28.824219 7.289062 30.566406 6.539062 32.933594 6.539062 C 36.308594 6.539062 37.277344 8.902344 37.320312 10.859375 L 37.339844 11.804688 C 28.007812 12.257812 19.234375 14 19.40625 22.539062 C 19.535156 28.515625 24.933594 30.96875 28.652344 30.945312 C 32.976562 30.945312 35.382812 29.785156 37.773438 26.839844 C 37.816406 28.085938 37.964844 29.398438 38.179688 30.363281 L 46.546875 30.363281 C 46.074219 28.910156 45.964844 27.441406 45.964844 25.914062 L 45.964844 10.410156 C 45.964844 6.644531 45.253906 4.539062 43.234375 2.710938 C 41.320312 0.96875 38.179688 0 33.941406 0 C 30.070312 0 26.738281 0.882812 24.285156 2.558594 C 26.308594 4.160156 27.640625 6.367188 28.179688 9.03125 M 18.933594 22.214844 L 18.933594 22.988281 C 19.0625 26.042969 20.546875 27.9375 21.914062 29.074219 C 19.589844 30.410156 16.839844 30.96875 14.367188 30.96875 C 5.335938 30.96875 0 24.582031 0 15.785156 C 0 6.625 5.503906 0 14.902344 0 C 21.71875 0 27.3125 3.613281 27.914062 10.691406 L 19.714844 10.691406 C 19.714844 8 17.820312 6.5625 15.175781 6.5625 C 10.9375 6.5625 9.628906 9.542969 9.628906 15.054688 C 9.628906 20.65625 10.855469 23.917969 15.199219 23.917969 C 16.808594 23.9375 18.144531 23.378906 18.917969 22.21875 Z M 18.933594 22.214844 "/>
</svg>

<svg role="img" viewBox="0 0 46.545 32" height="32" width="46.545" xmlns="http://www.w3.org/2000/svg"><path d="M36.18 22.86c-.989 1.527-2.582 2.472-4.344 2.472-2.41 0-4.41-1.098-4.41-3.7 0-3.847 5.613-5.202 9.914-5.46v1.14c.023 2.493-.02 3.825-1.16 5.547m-8-13.828c.644-1.742 2.386-2.492 4.754-2.492 3.375 0 4.343 2.363 4.386 4.32l.02.946c-9.332.453-18.106 2.195-17.934 10.734.13 5.977 5.528 8.43 9.246 8.406 4.325 0 6.73-1.16 9.121-4.105.043 1.246.192 2.558.407 3.523h8.367c-.473-1.453-.582-2.922-.582-4.449V10.41c0-3.765-.711-5.87-2.73-7.7C41.32.97 38.18 0 33.94 0c-3.87 0-7.203.883-9.656 2.559C26.31 4.16 27.641 6.367 28.18 9.03m-9.246 13.184v.773c.128 3.055 1.613 4.95 2.98 6.086-2.324 1.336-5.074 1.895-7.547 1.895C5.336 30.969 0 24.582 0 15.785 0 6.625 5.504 0 14.902 0c6.817 0 12.41 3.613 13.012 10.691h-8.2c0-2.691-1.894-4.129-4.538-4.129-4.238 0-5.547 2.981-5.547 8.493 0 5.601 1.226 8.863 5.57 8.863 1.61.02 2.946-.54 3.719-1.7Zm0 0"/></svg>
